packages/ffe-icons/icons/open/300/sm/outdoor_garden.svg

<svg xmlns="http://www.w3.org/2000/svg" height="20" viewBox="0 -960 960 960" width="20"><path d="M106.001-154.001V-715L249.6-827.691l115.2 90 115.2-90 115.2 90 115.2-90L853.999-715v560.999H106.001Zm51.998-51.998h178.002V-694L250-761.693 157.999-690v484.001Zm235 0h174.002V-694L480-761.693 392.999-694v488.001Zm231 0h178.002V-690L710-761.693 623.999-694v488.001Z"/></svg>

<svg xmlns="http://www.w3.org/2000/svg" height="20" viewBox="0 -960 960 960" width="20"><path d="M106-154v-561l143.6-112.69 115.2 90 115.2-90 115.2 90 115.2-90L854-715v561H106Zm52-52h178v-488l-86-67.69L158-690v484Zm235 0h174v-488l-87-67.69L393-694v488Zm231 0h178v-484l-92-71.69L624-694v488Z"/></svg>
